X:033
T:My Wife foolish young thing TS.033
M:C|
L:1/8
Q:1/2=60
S:Thomas Sands’ MS,1810,Lincolnshire
N:No.21 in MS
R:reel
O:England;Lincolnshire
Z:vmp.Ruairidh Greig, 2011
K:Gm
d/c/|BGGG DGGA|BGGBd2dc/B/|BGGG DGGA|AFFAc2B/A/:|
|:Bcdd gddd|Bcdd ga ga/b/|B/A/B/c/ d/c/d/e/ fccB|AFFAc2B/A/|
Bcdd gddd|B/A/B/c/ dd gdga|b>g a>f ge fc|AFFA c2B/A/:|]

